X: 1168
T: The Blarney Pilgrim
B: ralph
B: to learn
M:6/8
R: jig
Q: 3/8=101
K:Dmixolydian
V:1 
|:"G"DED DEG|"D"A2A ABc|"G"BAG "Am"AGE|"Em"GEA "C"GED|
 "G"DED DEG|"D"A2A ABc|"G"BAG "Am"AGE|"D"GED D3:|
 |:"G"ded dBG|"D"AGA "G"BGE|"G"ded dBG|"D"AGA "G"GAB|
 "Em"g2e "G"dBG|"Am"AGA "Em"BGE|"G"B2G "C"AGE|"D"GAG G3:|
 |:"D"A2D "G"B2D|"D"A2D ABc|"G"BAG "Am"AGE|"Em"GEA "C"GED|
 "D"ADD "G"BDD|"D"ADD ABc|"G"BAG "Am"AGE|"C"GED "D"D3:|
% abcbook-tune_id 63443e32a786a071a4313435


% abcbook-boost 0
% abcbook-tablature 
% abcbook-transpose 
% abcbook-lastupdated 1665964744043
% abcbook-soundfonts 
% abcbook-repeats 2


